public/imgs/bridge/mainnet.svg

<svg fill="none" height="52" viewBox="0 0 52 52" width="52" xmlns="http://www.w3.org/2000/svg"><path d="m25.6238 0-.3631 1.18492v34.38358l.3631.348 16.6239-9.4342z" fill="#343434"/><path d="m25.6239 0-16.6239 26.4823 16.6239 9.4343v-16.6888z" fill="#8c8c8c"/><path d="m25.6238 38.9385-.2046.2394v12.2482l.2046.5739 16.6338-22.491z" fill="#3c3c3b"/><path d="m25.6239 51.9998v-13.0615l-16.6239-9.4295z" fill="#8c8c8c"/><path d="m25.6238 35.9164 16.6236-9.434-16.6236-7.2545z" fill="#141414"/><path d="m9.00012 26.4824 16.62368 9.4341v-16.6885z" fill="#393939"/></svg>

<svg width="52" height="52" viewBox="0 0 52 52" fill="none" xmlns="http://www.w3.org/2000/svg">
<path d="M25.6238 0L25.2607 1.18492V35.5685L25.6238 35.9165L42.2477 26.4823L25.6238 0Z" fill="#343434"/>
<path d="M25.6239 0L9 26.4823L25.6239 35.9166V19.2278V0Z" fill="#8C8C8C"/>
<path d="M25.6238 38.9385L25.4192 39.1779V51.4261L25.6238 52L42.2576 29.509L25.6238 38.9385Z" fill="#3C3C3B"/>
<path d="M25.6239 51.9998V38.9383L9 29.5088L25.6239 51.9998Z" fill="#8C8C8C"/>
<path d="M25.6238 35.9164L42.2474 26.4824L25.6238 19.2279V35.9164Z" fill="#141414"/>
<path d="M9.00012 26.4824L25.6238 35.9165V19.228L9.00012 26.4824Z" fill="#393939"/>
</svg>
